components/icon/svg/24/communication_chat.svg

<?xml version="1.0" encoding="UTF-8"?>
<svg width="24px" height="24px" viewBox="0 0 24 24" version="1.1" xmlns="http://www.w3.org/2000/svg" xmlns:xlink="http://www.w3.org/1999/xlink">
    <!-- Generator: Sketch 64 (93537) - https://sketch.com -->
    <title>ic-db_communication_chat_24</title>
    <desc>Created with Sketch.</desc>
    <g id="Symbols:Icon" stroke="none" stroke-width="1" fill="none" fill-rule="evenodd">
        <g id="24dp-Icon/Communication/Chat" fill="#282D37">
            <path d="M18.9953,2 C20.615,2 22,3.2207 22,4.7934 L22,14.9812 C22,16.5775 20.7793,17.9859 19.1831,17.9859 L7.939,17.9859 C7.7512,17.9859 7.5164,18.0329 7.3521,18.1972 L3.6901,21.7183 C3.4789,21.9296 3.2207,22 3.0094,22 C2.5,22 2,21.5 2,21 L2,5 C2,3.32328281 3.3692697,2 5,2 L18.9953,2 Z M4.9859,3.9953 C4.446,3.9953 4,4.5 4,5 L4,18.6432 L5.8544,16.8122 C6.3239,16.3897 6.9343,16.0141 7.5446,16.0141 L19,16 C19.5399,16 20,15.5164 20,15 L20,5 C20,4.5071 19.5164,4 19,4 L4.9859,3.9953 Z M17,11 C17.5647271,11 18,11.4366 18,12 C18,12.5634 17.5176164,13 17,13 L6.98822232,12.9953 C6.42349521,12.9953 6,12.5493 6,11.9859 C6,11.4225 6.50583872,11 7,11 L17,11 Z M17.0117777,7 C17.5,7 18,7.4 18,8 C18,8.6 17.5,9 17,9 L6.98822232,8.9953 C6.42349521,8.9953 6,8.6 6,8 C6,7.4 6.50583872,7 7,7 L17.0117777,7 Z" id="🎨-Color"></path>
        </g>
    </g>
</svg>

<svg width="24" height="24" xmlns="http://www.w3.org/2000/svg"><path d="M18.995 2C20.615 2 22 3.22 22 4.793v10.188c0 1.597-1.22 3.005-2.817 3.005H7.94c-.188 0-.423.047-.587.211L3.69 21.718a.957.957 0 01-.68.282C2.5 22 2 21.5 2 21V5c0-1.677 1.37-3 3-3h13.995zM4.985 3.995C4.447 3.995 4 4.5 4 5v13.643l1.854-1.83c.47-.423 1.08-.799 1.69-.799L19 16c.54 0 1-.484 1-1V5c0-.493-.484-1-1-1L4.986 3.995zM17 11c.565 0 1 .437 1 1s-.482 1-1 1l-10.012-.005c-.565 0-.988-.446-.988-1.01 0-.563.506-.985 1-.985h10zm.012-4A1 1 0 0117 9L6.988 8.995C6.423 8.995 6 8.6 6 8s.506-1 1-1h10.012z" fill="#282D37" fill-rule="evenodd"/></svg>
